assets/svg/page_vectors/calculate.svg

<svg width="177" height="54" viewBox="0 0 177 54" fill="none" xmlns="http://www.w3.org/2000/svg">
<path d="M56.5464 30.6748C56.4243 31.7979 56.0215 32.6572 55.3379 33.2529C54.6592 33.8486 53.7534 34.1465 52.6206 34.1465C51.8296 34.1465 51.1289 33.9487 50.5186 33.5532C49.9131 33.1577 49.4443 32.5986 49.1123 31.876C48.7803 31.1484 48.6118 30.3184 48.6069 29.3857V28.0015C48.6069 27.0542 48.7729 26.2144 49.105 25.4819C49.437 24.7495 49.9131 24.1855 50.5332 23.79C51.1582 23.3896 51.876 23.1895 52.6865 23.1895C53.8291 23.1895 54.73 23.4995 55.3892 24.1196C56.0532 24.7349 56.439 25.5869 56.5464 26.6758H55.6382C55.4136 24.8643 54.4297 23.9585 52.6865 23.9585C51.7197 23.9585 50.9482 24.3198 50.3721 25.0425C49.8008 25.7651 49.5151 26.7637 49.5151 28.0381V29.3418C49.5151 30.5723 49.7935 31.5537 50.3501 32.2861C50.9116 33.0186 51.6685 33.3848 52.6206 33.3848C53.563 33.3848 54.2734 33.1602 54.752 32.7109C55.2305 32.2568 55.5259 31.5781 55.6382 30.6748H56.5464ZM64.4932 31.0117H59.6519L58.5532 34H57.6084L61.644 23.3359H62.501L66.5366 34H65.5991L64.4932 31.0117ZM59.9302 30.2427H64.2075L62.0688 24.4346L59.9302 30.2427ZM69.0195 33.2383H74.2856V34H68.1113V23.3359H69.0195V33.2383ZM83.0894 30.6748C82.9673 31.7979 82.5645 32.6572 81.8809 33.2529C81.2021 33.8486 80.2964 34.1465 79.1636 34.1465C78.3726 34.1465 77.6719 33.9487 77.0615 33.5532C76.4561 33.1577 75.9873 32.5986 75.6553 31.876C75.3232 31.1484 75.1548 30.3184 75.1499 29.3857V28.0015C75.1499 27.0542 75.3159 26.2144 75.6479 25.4819C75.98 24.7495 76.4561 24.1855 77.0762 23.79C77.7012 23.3896 78.4189 23.1895 79.2295 23.1895C80.3721 23.1895 81.2729 23.4995 81.9321 24.1196C82.5962 24.7349 82.9819 25.5869 83.0894 26.6758H82.1812C81.9565 24.8643 80.9727 23.9585 79.2295 23.9585C78.2627 23.9585 77.4912 24.3198 76.915 25.0425C76.3438 25.7651 76.0581 26.7637 76.0581 28.0381V29.3418C76.0581 30.5723 76.3364 31.5537 76.8931 32.2861C77.4546 33.0186 78.2114 33.3848 79.1636 33.3848C80.106 33.3848 80.8164 33.1602 81.2949 32.7109C81.7734 32.2568 82.0688 31.5781 82.1812 30.6748H83.0894ZM92.6255 23.3359V30.6162C92.6206 31.334 92.4619 31.959 92.1494 32.4912C91.8369 33.0234 91.395 33.4336 90.8237 33.7217C90.2573 34.0049 89.6055 34.1465 88.8682 34.1465C87.7451 34.1465 86.8442 33.8413 86.1655 33.231C85.4917 32.6157 85.1426 31.7661 85.1182 30.6821V23.3359H86.0117V30.5503C86.0117 31.4487 86.2681 32.147 86.7808 32.645C87.2935 33.1382 87.9893 33.3848 88.8682 33.3848C89.7471 33.3848 90.4404 33.1357 90.9482 32.6377C91.4609 32.1396 91.7173 31.4463 91.7173 30.5576V23.3359H92.6255ZM96.0459 33.2383H101.312V34H95.1377V23.3359H96.0459V33.2383ZM108.951 31.0117H104.11L103.011 34H102.066L106.102 23.3359H106.959L110.995 34H110.057L108.951 31.0117ZM104.388 30.2427H108.666L106.527 24.4346L104.388 30.2427ZM118.854 24.105H115.199V34H114.298V24.105H110.65V23.3359H118.854V24.105ZM126.471 28.8877H121.483V33.2383H127.218V34H120.582V23.3359H127.181V24.105H121.483V28.126H126.471V28.8877Z" fill="black"/>
<rect x="2.5" y="2.5" width="172" height="49" stroke="black" stroke-width="5"/>
</svg>

<?xml version="1.0" encoding="utf-8"?>
<!-- Generator: Adobe Illustrator 22.1.0, SVG Export Plug-In . SVG Version: 6.00 Build 0)  -->
<svg version="1.1" id="Layer_1" xmlns="http://www.w3.org/2000/svg" xmlns:xlink="http://www.w3.org/1999/xlink" x="0px" y="0px"
	 viewBox="0 0 177 54" style="enable-background:new 0 0 177 54;" xml:space="preserve">
<style type="text/css">
	.st0{fill:none;stroke:#121111;stroke-width:5;}
</style>
<path d="M56.5,30.7c-0.1,1.1-0.5,2-1.2,2.6c-0.7,0.6-1.6,0.9-2.7,0.9c-0.8,0-1.5-0.2-2.1-0.6c-0.6-0.4-1.1-1-1.4-1.7
	c-0.3-0.7-0.5-1.6-0.5-2.5V28c0-0.9,0.2-1.8,0.5-2.5c0.3-0.7,0.8-1.3,1.4-1.7c0.6-0.4,1.3-0.6,2.2-0.6c1.1,0,2,0.3,2.7,0.9
	c0.7,0.6,1,1.5,1.2,2.6h-0.9c-0.2-1.8-1.2-2.7-3-2.7c-1,0-1.7,0.4-2.3,1.1c-0.6,0.7-0.9,1.7-0.9,3v1.3c0,1.2,0.3,2.2,0.8,2.9
	c0.6,0.7,1.3,1.1,2.3,1.1c0.9,0,1.7-0.2,2.1-0.7c0.5-0.5,0.8-1.1,0.9-2H56.5z M64.5,31h-4.8l-1.1,3h-0.9l4-10.7h0.9l4,10.7h-0.9
	L64.5,31z M59.9,30.2h4.3l-2.1-5.8L59.9,30.2z M69,33.2h5.3V34h-6.2V23.3H69V33.2z M83.1,30.7c-0.1,1.1-0.5,2-1.2,2.6
	c-0.7,0.6-1.6,0.9-2.7,0.9c-0.8,0-1.5-0.2-2.1-0.6c-0.6-0.4-1.1-1-1.4-1.7c-0.3-0.7-0.5-1.6-0.5-2.5V28c0-0.9,0.2-1.8,0.5-2.5
	c0.3-0.7,0.8-1.3,1.4-1.7c0.6-0.4,1.3-0.6,2.2-0.6c1.1,0,2,0.3,2.7,0.9c0.7,0.6,1,1.5,1.2,2.6h-0.9C82,24.9,81,24,79.2,24
	c-1,0-1.7,0.4-2.3,1.1c-0.6,0.7-0.9,1.7-0.9,3v1.3c0,1.2,0.3,2.2,0.8,2.9c0.6,0.7,1.3,1.1,2.3,1.1c0.9,0,1.7-0.2,2.1-0.7
	c0.5-0.5,0.8-1.1,0.9-2H83.1z M92.6,23.3v7.3c0,0.7-0.2,1.3-0.5,1.9s-0.8,0.9-1.3,1.2c-0.6,0.3-1.2,0.4-2,0.4c-1.1,0-2-0.3-2.7-0.9
	c-0.7-0.6-1-1.5-1-2.5v-7.3H86v7.2c0,0.9,0.3,1.6,0.8,2.1c0.5,0.5,1.2,0.7,2.1,0.7s1.6-0.2,2.1-0.7c0.5-0.5,0.8-1.2,0.8-2.1v-7.2
	H92.6z M96,33.2h5.3V34h-6.2V23.3H96V33.2z M109,31h-4.8l-1.1,3h-0.9l4-10.7h0.9l4,10.7h-0.9L109,31z M104.4,30.2h4.3l-2.1-5.8
	L104.4,30.2z M118.9,24.1h-3.7V34h-0.9v-9.9h-3.6v-0.8h8.2V24.1z M126.5,28.9h-5v4.4h5.7V34h-6.6V23.3h6.6v0.8h-5.7v4h5V28.9z"/>
<rect x="2.5" y="2.5" class="st0" width="172" height="49"/>
</svg>
